assets/svg/006-dog.svg

<?xml version="1.0" encoding="iso-8859-1"?>
<!-- Generator: Adobe Illustrator 16.0.0, SVG Export Plug-In . SVG Version: 6.00 Build 0)  -->
<!DOCTYPE svg PUBLIC "-//W3C//DTD SVG 1.1//EN" "http://www.w3.org/Graphics/SVG/1.1/DTD/svg11.dtd">
<svg version="1.1" id="Capa_1" xmlns="http://www.w3.org/2000/svg" xmlns:xlink="http://www.w3.org/1999/xlink" x="0px" y="0px"
	 width="99.38px" height="99.38px" viewBox="0 0 99.38 99.38" style="enable-background:new 0 0 99.38 99.38;" xml:space="preserve"
	>
<g>
	<g>
		<circle cx="32.668" cy="13.741" r="10.08"/>
		<path d="M67.734,74.439l-3.791-3.045c-0.857-0.689-2.111-0.553-2.8,0.305c-0.688,0.857-0.552,2.111,0.305,2.799l3.868,3.107v8.449
			c0,0.041-3.392,6.682-3.392,6.682c-0.508,0.976-0.128,2.178,0.847,2.686c0.294,0.152,0.608,0.225,0.917,0.225
			c0.719,0,1.413-0.39,1.769-1.072l3.427-6.584l3.835,6.66c0.369,0.64,1.038,0.998,1.728,0.998c0.337,0,0.679-0.086,0.992-0.267
			c0.953-0.549,1.281-1.767,0.732-2.719l-3.347-5.812h12.394v6.805c0,1.101,0.892,1.992,1.992,1.992c1.1,0,1.99-0.893,1.99-1.992
			v-7.531c0.003-0.023,0.015-0.045,0.015-0.068v-6.298l-9.275-5.317H67.734V74.439z"/>
		<path d="M94.369,70.39c-1.231-1.16-1.645-2.517-3.026-3.5c-0.241-0.17-0.485-0.345-0.741-0.49
			c-0.154-0.086-0.203-0.188-0.186-0.354c0.059-0.571,0.116-1.144,0.162-1.714c0.082-1.023-0.215-1.957-1.036-2.561
			c-0.33-0.244-1.959-1.033-2.668,1.668c-0.154,0.586-0.364,1.17-0.645,1.707c-1.023,1.967-2.324,3.766-3.567,5.598
			c-0.568,0.835-1.137,1.67-1.702,2.503l8.708,4.959c0,0,1.679-1.835,1.915-1.731c0.326,0.145,0.654,0.285,0.982,0.428
			c0.958,0.418,1.958,0.611,3.006,0.55c1.78-0.104,3.635-1.05,3.805-3.185C99.531,72.31,94.784,70.781,94.369,70.39z"/>
		<path d="M61.92,54.997l16.438,17.801l1.548-1.429L63.461,53.56c-5.026-5.343-9.446-9.653-12.623-8.309
			c-0.139,0.059-0.271,0.128-0.399,0.207c-7.507-1.032-9.096-4.524-11.5-9.807c-1.304-2.867-2.783-6.117-5.428-8.984
			c-0.019-0.021-0.043-0.035-0.063-0.056c-0.924-1.021-2.052-1.846-3.203-2.404c0,0-0.972-0.532-2.082-0.745
			c-1.061-0.204-2.898-0.15-4.062-0.008C11.807,25.252,6.352,34.335,1.093,43.147l-0.538,0.902c-1.109,1.854-0.505,4.257,1.35,5.367
			c0.629,0.376,1.321,0.555,2.005,0.555c1.331,0,2.629-0.679,3.362-1.905l0.542-0.908c2.713-4.547,5.125-8.567,8.206-11.473
			l-3.304,15.421c-0.462,2.156,0.142,4.145,1.339,5.76l-1.012,15.439L6.609,88.939c-0.992,2.566,0.283,5.451,2.849,6.442
			c0.59,0.229,1.198,0.337,1.795,0.337c1.998,0,3.882-1.211,4.646-3.186l6.708-17.346c0.182-0.471,0.292-0.967,0.325-1.471
			l0.589-8.988l5.918,9.354l4.845,17.833c0.594,2.229,2.608,3.699,4.809,3.697c0.424,0,0.856-0.055,1.287-0.168
			c2.658-0.709,4.238-3.438,3.529-6.096l-5.041-18.57c-0.13-0.486-0.333-0.952-0.604-1.379l-8.058-12.734
			c0.258-0.514,0.465-1.07,0.597-1.686L33.5,42.393c2.394,4.525,6.093,9.048,14.573,10.593c-0.002,0.641,0.014,1.322,0.047,2.045
			l2.105-0.098c-0.029-0.621-0.04-1.18-0.042-1.705c1.818-0.119,3.366-1.486,3.622-3.362c0.121-0.882-0.075-1.728-0.483-2.448
			C55.894,48.585,59.812,52.756,61.92,54.997z"/>
	</g>
</g>
<g>
</g>
<g>
</g>
<g>
</g>
<g>
</g>
<g>
</g>
<g>
</g>
<g>
</g>
<g>
</g>
<g>
</g>
<g>
</g>
<g>
</g>
<g>
</g>
<g>
</g>
<g>
</g>
<g>
</g>
</svg>

<?xml version="1.0" encoding="UTF-8" standalone="no"?>
<!DOCTYPE svg PUBLIC "-//W3C//DTD SVG 1.1//EN" "http://www.w3.org/Graphics/SVG/1.1/DTD/svg11.dtd">
<svg width="100%" height="100%" viewBox="0 0 100 100" version="1.1" xmlns="http://www.w3.org/2000/svg" xmlns:xlink="http://www.w3.org/1999/xlink" xml:space="preserve" style="fill-rule:evenodd;clip-rule:evenodd;stroke-linejoin:round;stroke-miterlimit:1.41421;">
    <g>
        <circle cx="32.668" cy="13.741" r="10.08"/>
        <path d="M67.734,74.439L63.943,71.394C63.086,70.705 61.832,70.841 61.143,71.699C60.455,72.556 60.591,73.81 61.448,74.498L65.316,77.605L65.316,86.054C65.316,86.095 61.924,92.736 61.924,92.736C61.416,93.712 61.796,94.914 62.771,95.422C63.065,95.574 63.379,95.647 63.688,95.647C64.407,95.647 65.101,95.257 65.457,94.575L68.884,87.991L72.719,94.651C73.088,95.291 73.757,95.649 74.447,95.649C74.784,95.649 75.126,95.563 75.439,95.382C76.392,94.833 76.72,93.615 76.171,92.663L72.824,86.851L85.218,86.851L85.218,93.656C85.218,94.757 86.11,95.648 87.21,95.648C88.31,95.648 89.2,94.755 89.2,93.656L89.2,86.125C89.203,86.102 89.215,86.08 89.215,86.057L89.215,79.759L79.94,74.442L67.734,74.442L67.734,74.439Z" style="fill-rule:nonzero;"/>
        <path d="M94.369,70.39C93.138,69.23 92.724,67.873 91.343,66.89C91.102,66.72 90.858,66.545 90.602,66.4C90.448,66.314 90.399,66.212 90.416,66.046C90.475,65.475 90.532,64.902 90.578,64.332C90.66,63.309 90.363,62.375 89.542,61.771C89.212,61.527 87.583,60.738 86.874,63.439C86.72,64.025 86.51,64.609 86.229,65.146C85.206,67.113 83.905,68.912 82.662,70.744C82.094,71.579 81.525,72.414 80.96,73.247L89.668,78.206C89.668,78.206 91.347,76.371 91.583,76.475C91.909,76.62 92.237,76.76 92.565,76.903C93.523,77.321 94.523,77.514 95.571,77.453C97.351,77.349 99.206,76.403 99.376,74.268C99.531,72.31 94.784,70.781 94.369,70.39Z" style="fill-rule:nonzero;"/>
        <path d="M61.92,54.997L78.358,72.798L79.906,71.369L63.461,53.56C58.435,48.217 54.015,43.907 50.838,45.251C50.699,45.31 50.567,45.379 50.439,45.458C42.932,44.426 41.343,40.934 38.939,35.651C37.635,32.784 36.156,29.534 33.511,26.667C33.492,26.646 33.468,26.632 33.448,26.611C32.524,25.59 31.396,24.765 30.245,24.207C30.245,24.207 29.273,23.675 28.163,23.462C27.102,23.258 25.265,23.312 24.101,23.454C11.807,25.252 6.352,34.335 1.093,43.147L0.555,44.049C-0.554,45.903 0.05,48.306 1.905,49.416C2.534,49.792 3.226,49.971 3.91,49.971C5.241,49.971 6.539,49.292 7.272,48.066L7.814,47.158C10.527,42.611 12.939,38.591 16.02,35.685L12.716,51.106C12.254,53.262 12.858,55.251 14.055,56.866L13.043,72.305L6.609,88.939C5.617,91.505 6.892,94.39 9.458,95.381C10.048,95.61 10.656,95.718 11.253,95.718C13.251,95.718 15.135,94.507 15.899,92.532L22.607,75.186C22.789,74.715 22.899,74.219 22.932,73.715L23.521,64.727L29.439,74.081L34.284,91.914C34.878,94.143 36.892,95.613 39.093,95.611C39.517,95.611 39.949,95.556 40.38,95.443C43.038,94.734 44.618,92.005 43.909,89.347L38.868,70.777C38.738,70.291 38.535,69.825 38.264,69.398L30.206,56.664C30.464,56.15 30.671,55.594 30.803,54.978L33.5,42.393C35.894,46.918 39.593,51.441 48.073,52.986C48.071,53.627 48.087,54.308 48.12,55.031L50.225,54.933C50.196,54.312 50.185,53.753 50.183,53.228C52.001,53.109 53.549,51.742 53.805,49.866C53.926,48.984 53.73,48.138 53.322,47.418C55.894,48.585 59.812,52.756 61.92,54.997Z" style="fill-rule:nonzero;"/>
    </g>
</svg>
